Dominus_Dark_Funeral/scalable/apps/fingerprint-gui.svg

<?xml version="1.0" encoding="UTF-8" standalone="no"?><svg xmlns:dc="http://purl.org/dc/elements/1.1/" xmlns:cc="http://creativecommons.org/ns#" xmlns:rdf="http://www.w3.org/1999/02/22-rdf-syntax-ns#" xmlns="http://www.w3.org/2000/svg" xmlns:xlink="http://www.w3.org/1999/xlink" width="48" height="48" viewBox="0 0 12.7 12.7"><metadata><rdf:RDF><cc:Work><dc:format>image/svg+xml</dc:format><dc:type rdf:resource="http://purl.org/dc/dcmitype/StillImage"/><dc:title/></cc:Work></rdf:RDF></metadata><defs><linearGradient id="a"><stop offset="0" stop-color="#e9c6af"/><stop offset="1" stop-color="#c87137"/></linearGradient><radialGradient xlink:href="#a" id="b" cx="6.33" cy="5.04" fx="6.33" fy="5.04" r="5.35" gradientTransform="matrix(1 0 0 1.17063 0 -1.08)" gradientUnits="userSpaceOnUse"/></defs><path d="M6.35.1C4.81.1 3.57.38 2.66.96A3.67 3.67 0 0 0 1 4.22c0 1.91 1.54 4.47 2.01 5.2.54.85 1.13 1.61 1.65 2.16.68.7 1.21 1.03 1.69 1.03s1.01-.33 1.69-1.03a15.2 15.2 0 0 0 1.65-2.15c.47-.74 2-3.3 2-5.21 0-1.42-.57-2.54-1.65-3.25A6.75 6.75 0 0 0 6.35.1z" fill="url(#b)"/><path d="M6.27.5a6.64 6.17 0 0 0-5 2.13 3.67 3.67 0 0 0-.12.34 3.67 3.67 0 0 0-.09.36 3.67 3.67 0 0 0-.05.36 3.67 3.67 0 0 0-.01.36c.07-.1.14-.16.25-.32a6.1 6.1 0 0 1 3.27-2.32 6.42 5.97 0 0 1 3.5 0 6.28 5.84 0 0 1 3.6 2.86c.02.03.04.03.05.06l.02-.11c0-.36-.04-.7-.1-1-.04-.17-.12-.32-.17-.48A6.66 6.2 0 0 0 6.27.5zm.03 1.35a6.09 6.17 0 0 0-5.2 2.99c.04.27.06.54.14.82.1-.09.23-.24.46-.58a5.63 5.63 0 0 1 3-2.33 5.88 5.97 0 0 1 3.2 0 5.76 5.84 0 0 1 3.31 2.86c.07.14.12.21.18.27l.05-.14c.09-.3.1-.56.14-.84A6.1 6.2 0 0 0 6.3 1.85zm.08 1.44v.02a4.77 4.84 0 0 0-4.6 3.58 7.16 7.26 0 0 0-.03.18l.08.2c.18.4.31.57.5.9.01-1.5.62-2.76 1.8-3.54a4.04 4.1 0 0 1 5.18.72c.77.9 1.2 2.42.9 3.12.23-.4.41-.67.66-1.2l.02-.07a4.72 4.72 0 0 0-4.5-3.91zM6.33 4.8c-.5 0-1 .1-1.4.25-.64.33-1.24.97-1.55 1.64-.26.5-.26.58-.26 1.44a5 5.06 0 0 0 .24 1.74c.44.64.9 1.27 1.3 1.7.34.35.64.6.92.78.1.06.17.05.26.08-.06-.06-.08-.11-.17-.18a5.34 5.34 0 0 1-1.36-1.77c-.58-1.2-.75-2.65-.34-3.48A2.64 2.67 0 0 1 5.19 5.7a2.74 2.78 0 0 1 2.23 0A2.64 2.67 0 0 1 8.84 7.7c.1.6.26.78.5.62.13-.06.13-.2.13-.62a3.17 3.17 0 0 0-1.83-2.65 3.2 3.2 0 0 0-1.3-.25zm-.06 1.43a1.62 1.65 0 0 0-.76.22 1.83 1.85 0 0 0-.97 1.3 4.67 4.73 0 0 0 2.64 4.55c.17-.11.37-.3.57-.48A3.94 4 0 0 1 5.2 8.14c0-.6.2-.94.73-1.15.36-.14.36-.14.73 0 .47.2.69.54.75 1.1.1 1.04.81 1.72 1.8 1.72a1.74 1.77 0 0 0 .19-.01c.1-.14.19-.23.28-.37.1-.15.3-.58.46-.85-.26.42-.78.67-1.2.55-.35-.08-.76-.5-.8-.82-.18-1.13-.45-1.58-1.1-1.9a1.62 1.65 0 0 0-.78-.17zm.06 1.45a.4.41 0 0 0-.19.06c-.14.09-.16.15-.14.58a3.25 3.3 0 0 0 2.35 2.84c.15-.17.3-.4.46-.6a2.6 2.6 0 0 1-2.16-2.32c-.04-.35-.16-.55-.32-.56z" fill="#a05a2c"/><path d="M6.35.1C4.81.1 3.57.38 2.66.96A3.67 3.67 0 0 0 1 4.22c0 1.91 1.54 4.47 2.01 5.2.54.85 1.13 1.61 1.65 2.16.68.7 1.21 1.03 1.69 1.03s1.01-.33 1.69-1.03a15.2 15.2 0 0 0 1.65-2.15c.47-.74 2-3.3 2-5.21 0-1.42-.57-2.54-1.65-3.25A6.75 6.75 0 0 0 6.35.1zm0 .03C6.91.15 7.44.2 7.9.31a5.82 5.82 0 0 1 1.6.66 3.65 3.65 0 0 1 1.24 1.36c.14.27.25.57.32.88a4.61 4.61 0 0 1-.14 2.53c-.15.52-.36 1.04-.58 1.52-.44.97-.95 1.8-1.18 2.17a15.2 15.2 0 0 1-1.65 2.15 4.9 4.9 0 0 1-.92.78.96.96 0 0 1-.24.1.96.96 0 0 1-.24-.1 4.76 4.76 0 0 1-.92-.78 14.41 14.41 0 0 1-1.65-2.15 19.2 19.2 0 0 1-1.18-2.17c-.22-.48-.43-1-.58-1.52a4.6 4.6 0 0 1-.14-2.52 3.73 3.73 0 0 1 .84-1.64 3.65 3.65 0 0 1 1.45-1A6.83 6.83 0 0 1 6.35.13z" opacity=".2"/></svg>

<?xml version="1.0" encoding="UTF-8" standalone="no"?>
<svg
   xmlns:dc="http://purl.org/dc/elements/1.1/"
   xmlns:cc="http://creativecommons.org/ns#"
   xmlns:rdf="http://www.w3.org/1999/02/22-rdf-syntax-ns#"
   xmlns:svg="http://www.w3.org/2000/svg"
   xmlns="http://www.w3.org/2000/svg"
   xmlns:xlink="http://www.w3.org/1999/xlink"
   xmlns:sodipodi="http://sodipodi.sourceforge.net/DTD/sodipodi-0.dtd"
   xmlns:inkscape="http://www.inkscape.org/namespaces/inkscape"
   width="48"
   height="48"
   viewBox="0 0 12.7 12.7"
   version="1.1"
   id="svg18"
   sodipodi:docname="fingerprint-gui.svg"
   inkscape:version="0.92.4 (5da689c313, 2019-01-14)">
  <sodipodi:namedview
     pagecolor="#ffffff"
     bordercolor="#666666"
     borderopacity="1"
     objecttolerance="10"
     gridtolerance="10"
     guidetolerance="10"
     inkscape:pageopacity="0"
     inkscape:pageshadow="2"
     inkscape:window-width="1112"
     inkscape:window-height="480"
     id="namedview20"
     showgrid="false"
     inkscape:zoom="4.9166667"
     inkscape:cx="2.1355932"
     inkscape:cy="24"
     inkscape:window-x="0"
     inkscape:window-y="25"
     inkscape:window-maximized="0"
     inkscape:current-layer="svg18" />
  <metadata
     id="metadata2">
    <rdf:RDF>
      <cc:Work>
        <dc:format>image/svg+xml</dc:format>
        <dc:type
           rdf:resource="http://purl.org/dc/dcmitype/StillImage" />
        <dc:title></dc:title>
      </cc:Work>
    </rdf:RDF>
  </metadata>
  <defs
     id="defs10">
    <linearGradient
       id="a">
      <stop
         offset="0"
         stop-color="#e9c6af"
         id="stop4" />
      <stop
         offset="1"
         stop-color="#c87137"
         id="stop6" />
    </linearGradient>
    <radialGradient
       xlink:href="#a"
       id="b"
       cx="6.33"
       cy="5.04"
       fx="6.33"
       fy="5.04"
       r="5.35"
       gradientTransform="matrix(1,0,0,1.17063,0,-1.08)"
       gradientUnits="userSpaceOnUse" />
  </defs>
  <path
     d="M 6.35,0.1 C 4.81,0.1 3.57,0.38 2.66,0.96 A 3.67,3.67 0 0 0 1,4.22 c 0,1.91 1.54,4.47 2.01,5.2 0.54,0.85 1.13,1.61 1.65,2.16 0.68,0.7 1.21,1.03 1.69,1.03 0.48,0 1.01,-0.33 1.69,-1.03 A 15.2,15.2 0 0 0 9.69,9.43 c 0.47,-0.74 2,-3.3 2,-5.21 0,-1.42 -0.57,-2.54 -1.65,-3.25 A 6.75,6.75 0 0 0 6.35,0.1 Z"
     id="path12"
     style="fill:url(#b)"
     inkscape:connector-curvature="0" />
  <path
     d="M 6.27,0.5 A 6.64,6.17 0 0 0 1.27,2.63 3.67,3.67 0 0 0 1.15,2.97 3.67,3.67 0 0 0 1.06,3.33 3.67,3.67 0 0 0 1.01,3.69 3.67,3.67 0 0 0 1,4.05 C 1.07,3.95 1.14,3.89 1.25,3.73 a 6.1,6.1 0 0 1 3.27,-2.32 6.42,5.97 0 0 1 3.5,0 6.28,5.84 0 0 1 3.6,2.86 c 0.02,0.03 0.04,0.03 0.05,0.06 l 0.02,-0.11 c 0,-0.36 -0.04,-0.7 -0.1,-1 C 11.55,3.05 11.47,2.9 11.42,2.74 A 6.66,6.2 0 0 0 6.27,0.5 Z M 6.3,1.85 A 6.09,6.17 0 0 0 1.1,4.84 C 1.14,5.11 1.16,5.38 1.24,5.66 1.34,5.57 1.47,5.42 1.7,5.08 a 5.63,5.63 0 0 1 3,-2.33 5.88,5.97 0 0 1 3.2,0 5.76,5.84 0 0 1 3.31,2.86 c 0.07,0.14 0.12,0.21 0.18,0.27 l 0.05,-0.14 c 0.09,-0.3 0.1,-0.56 0.14,-0.84 A 6.1,6.2 0 0 0 6.3,1.85 Z M 6.38,3.29 V 3.31 A 4.77,4.84 0 0 0 1.78,6.89 7.16,7.26 0 0 0 1.75,7.07 l 0.08,0.2 c 0.18,0.4 0.31,0.57 0.5,0.9 0.01,-1.5 0.62,-2.76 1.8,-3.54 a 4.04,4.1 0 0 1 5.18,0.72 c 0.77,0.9 1.2,2.42 0.9,3.12 0.23,-0.4 0.41,-0.67 0.66,-1.2 L 10.89,7.2 A 4.72,4.72 0 0 0 6.39,3.29 Z M 6.33,4.8 c -0.5,0 -1,0.1 -1.4,0.25 C 4.29,5.38 3.69,6.02 3.38,6.69 3.12,7.19 3.12,7.27 3.12,8.13 a 5,5.06 0 0 0 0.24,1.74 c 0.44,0.64 0.9,1.27 1.3,1.7 0.34,0.35 0.64,0.6 0.92,0.78 0.1,0.06 0.17,0.05 0.26,0.08 C 5.78,12.37 5.76,12.32 5.67,12.25 A 5.34,5.34 0 0 1 4.31,10.48 C 3.73,9.28 3.56,7.83 3.97,7 a 2.64,2.67 0 0 1 1.22,-1.3 2.74,2.78 0 0 1 2.23,0 2.64,2.67 0 0 1 1.42,2 C 8.94,8.3 9.1,8.48 9.34,8.32 9.47,8.26 9.47,8.12 9.47,7.7 A 3.17,3.17 0 0 0 7.64,5.05 3.2,3.2 0 0 0 6.34,4.8 Z M 6.27,6.23 A 1.62,1.65 0 0 0 5.51,6.45 1.83,1.85 0 0 0 4.54,7.75 4.67,4.73 0 0 0 7.18,12.3 C 7.35,12.19 7.55,12 7.75,11.82 A 3.94,4 0 0 1 5.2,8.14 c 0,-0.6 0.2,-0.94 0.73,-1.15 0.36,-0.14 0.36,-0.14 0.73,0 0.47,0.2 0.69,0.54 0.75,1.1 0.1,1.04 0.81,1.72 1.8,1.72 A 1.74,1.77 0 0 0 9.4,9.8 C 9.5,9.66 9.59,9.57 9.68,9.43 9.78,9.28 9.98,8.85 10.14,8.58 9.88,9 9.36,9.25 8.94,9.13 8.59,9.05 8.18,8.63 8.14,8.31 7.96,7.18 7.69,6.73 7.04,6.41 A 1.62,1.65 0 0 0 6.26,6.24 Z M 6.33,7.68 A 0.4,0.41 0 0 0 6.14,7.74 C 6,7.83 5.98,7.89 6,8.32 a 3.25,3.3 0 0 0 2.35,2.84 c 0.15,-0.17 0.3,-0.4 0.46,-0.6 A 2.6,2.6 0 0 1 6.65,8.24 C 6.61,7.89 6.49,7.69 6.33,7.68 Z"
     id="path14"
     inkscape:connector-curvature="0"
     style="fill:#a05a2c" />
  <path
     d="M 6.35,0.1 C 4.81,0.1 3.57,0.38 2.66,0.96 A 3.67,3.67 0 0 0 1,4.22 c 0,1.91 1.54,4.47 2.01,5.2 0.54,0.85 1.13,1.61 1.65,2.16 0.68,0.7 1.21,1.03 1.69,1.03 0.48,0 1.01,-0.33 1.69,-1.03 A 15.2,15.2 0 0 0 9.69,9.43 c 0.47,-0.74 2,-3.3 2,-5.21 0,-1.42 -0.57,-2.54 -1.65,-3.25 A 6.75,6.75 0 0 0 6.35,0.1 Z m 0,0.03 C 6.91,0.15 7.44,0.2 7.9,0.31 a 5.82,5.82 0 0 1 1.6,0.66 3.65,3.65 0 0 1 1.24,1.36 c 0.14,0.27 0.25,0.57 0.32,0.88 A 4.61,4.61 0 0 1 10.92,5.74 C 10.77,6.26 10.56,6.78 10.34,7.26 9.9,8.23 9.39,9.06 9.16,9.43 A 15.2,15.2 0 0 1 7.51,11.58 4.9,4.9 0 0 1 6.59,12.36 0.96,0.96 0 0 1 6.35,12.46 0.96,0.96 0 0 1 6.11,12.36 4.76,4.76 0 0 1 5.19,11.58 14.41,14.41 0 0 1 3.54,9.43 19.2,19.2 0 0 1 2.36,7.26 C 2.14,6.78 1.93,6.26 1.78,5.74 A 4.6,4.6 0 0 1 1.64,3.22 3.73,3.73 0 0 1 2.48,1.58 3.65,3.65 0 0 1 3.93,0.58 6.83,6.83 0 0 1 6.35,0.13 Z"
     id="path16"
     inkscape:connector-curvature="0"
     style="opacity:0.2" />
</svg>
